X:168
T:Lady Homes’ Favourite. RH.168
R:jig
S:Rev.R.Harrison’s MS,c1815,Cumbria
O:England
A:Temple Sowerby,Cumbria
Z:vmp.Simon Wilson. Review PJH, 2008.
M:6/8
L:1/8
Q:3/8=80
K:C
d|c2g geg|gea g2e|\
c2g gfe|ded {f}e2d|!
c2g geg|gea {a}g2e|\
(f/e/f/g/)a gfe|d>ed {f}e2:|!
|:d|c>dc cGc|cGc e2d|\
c>dc cGF|D>FD {f}e2d|!
c>dc cGF|GAB cGE|\
FGA GFE|DED {f}e2:|

